X:295
T:Road to Cashel, The
R:reel
C:Charlie Lennon
Z:Transcribed by Dave Marshall
M:C|
K:G
| FEED ~E3B | F~E3 DFAB | FEED EBBA | FD(3DDD BdAB |
FEED ~E3B | F~E3 DFAB | FEED EBBA | FD(3DDD BdAd |
~B3d egfe | dfab afed | Bdge ~f3e | dBAF FEE2 |
~B3d egfe | dfab afea | b~f3 afea | bfaf edBA |
